symbols/web/dining/materialsymbolssharp/dining_wght300gradN25_40px.svg

<svg xmlns="http://www.w3.org/2000/svg" height="40" width="40"><path d="M4.417 35.625V4.375h31.25v31.25Zm2-2h27.25V6.375H6.417Zm7.208-2.208h1.708V20.333q1.209-.166 2.021-1.062.813-.896.813-2.104V10.25h-1.584v5.917h-1.208V10.25H13.75v5.917h-1.333V10.25h-1.625v6.917q0 1.208.812 2.104.813.896 2.021 1.062Zm10.167 0h1.75V20.792q1.375-.5 2.187-1.917.813-1.417.813-3.375 0-2.292-1.084-3.771-1.083-1.479-2.708-1.479-1.625 0-2.708 1.479-1.084 1.479-1.084 3.729 0 2.042.771 3.438.771 1.396 2.063 1.896ZM6.417 33.625V6.375v27.25Z"/></svg>

<svg xmlns="http://www.w3.org/2000/svg" height="40" width="40"><path d="M4.417 35.625V4.375H35.667V35.625ZM6.417 33.625H33.667V6.375H6.417ZM13.625 31.417H15.333V20.333Q16.542 20.167 17.354 19.271Q18.167 18.375 18.167 17.167V10.25H16.583V16.167H15.375V10.25H13.75V16.167H12.417V10.25H10.792V17.167Q10.792 18.375 11.604 19.271Q12.417 20.167 13.625 20.333ZM23.792 31.417H25.542V20.792Q26.917 20.292 27.729 18.875Q28.542 17.458 28.542 15.5Q28.542 13.208 27.458 11.729Q26.375 10.25 24.75 10.25Q23.125 10.25 22.042 11.729Q20.958 13.208 20.958 15.458Q20.958 17.5 21.729 18.896Q22.5 20.292 23.792 20.792ZM6.417 33.625V6.375V33.625Z"/></svg>
